X:1058
T:Come Back To Erin
C:Joe Buchanan's Scottish Tome - Page 638.0
I:638 0
Z:Carl Allison
R:Waltz
L:1/4
M:3/4
K:C
G | "C"G3 | "C"c2 B | "C"c3 | "Cdim"^F2 G | "G7"B3 | "G7"A2 F | "Cdim"A3 | "C"G3 |
"C"E3 | "F"F2 "C"G | "F"F3 | "F"A2 A | "D7"A3 | "D7"d2 c | "G7"B3 | "G7"A2 G |
"C"G3 | "C"c2 B | ""c3 | "Cdim"^F2 G | "G7"B3 | "G7"A2 F | "Cdim"A3 | "C"G3 |
"C"E3 | "Dm"F2 G | "Dm"A3 | "D7"A2 c | "G7"d3 | "G7"A2 B | "C"c3- | c3 |
"Am"E3 | "E7"c2 B | "Am"A3 | "Cdim"^D2 E | "Dm"F3 | "E7"E2 D | "E7"D3 | "Am"C3 |
"E7"B,3 | "B7"B2 A | "Em"G3 | "B7"^F2 "Em"E | "Em"A3 | "B7"^F2 E | "Em"E3- | "Em"E3 |
"Am"E3 | "E7"c2 B | "Am"A3 | "Cdim"^D2 E | "Dm"F3 | "E7"E2 B | "E7"B3 | "Am"A3 |
"D7"c3 | "D7"B2 A | "G"d3 | "G"B2 G | "D7"D3 | "D7"A3 | "G7"G3- | "G7"G3 |
"C"G3 | "C"c2 B | "C"c3 | "Cdim"^F2 G | "G7"B3 | "G7"A2 F | "Cdim"A3 | "C"G3 |
"C"E3 | "F"F2 G | "F"A3 | "G"A2 A | "D7"A3 | "D7"d2 c | "G7"B3 | "G7"A2 G | 
"C"G3 | "C"c2 B | "C"c3 | "Cdim"^F2 G | "G7"B3 | "G7"A2 F | "Cdim"A3 | "C"G3 |
"C"E2 G | "C"c2 e | "C7"g2 f | "Dm"A2 "Ddim"f | "G7"e3 | c3- | "C"c3 |]

